client/src/assets/dispositif/thumb-down.svg

<svg fill="none" height="21" viewBox="0 0 22 21" width="22" xmlns="http://www.w3.org/2000/svg"><path clip-rule="evenodd" d="m21 0c.5523 0 1 .447715 1 1v10c0 .5523-.4477 1-1 1h-3.482c-.3249-.0001-.6295.1577-.817.423l-5.453 7.726c-.1424.2019-.411.2694-.632.159l-1.814-.908c-1.05184-.5257-1.59511-1.7134-1.305-2.853l.903-3.547h-6.4c-1.104567 0-1.99999894-.8954-1.99999894-2v-2.104c-.00026856-.26136.05069204-.52024.15000094-.762l3.095998-7.514c.15396-.374768.51884-.61960023.924-.62zm-5 2h-11.16l-2.84 6.896v2.104h6.4c.61726.0001 1.19989.2852 1.57873.7725.37887.4873.51147 1.1223.35927 1.7205l-.903 3.548c-.05823.228.05046.4658.261.571l.661.33 4.71-6.672c.25-.354.57-.644.933-.858z" fill="#000091" fill-rule="evenodd"/></svg>

<svg width="22" height="21" viewBox="0 0 22 21" fill="none" xmlns="http://www.w3.org/2000/svg">
<path fill-rule="evenodd" clip-rule="evenodd" d="M21 0C21.5523 0 22 0.447715 22 1V11C22 11.5523 21.5523 12 21 12H17.518C17.1931 11.9999 16.8885 12.1577 16.701 12.423L11.248 20.149C11.1056 20.3509 10.837 20.4184 10.616 20.308L8.802 19.4C7.75016 18.8743 7.20689 17.6866 7.497 16.547L8.4 13H2C0.895433 13 1.05593e-06 12.1046 1.05593e-06 11V8.896C-0.0002675 8.63464 0.0506931 8.37576 0.150002 8.134L3.246 0.62C3.39996 0.245232 3.76484 0.00039977 4.17 0H21ZM16 2H4.84L2 8.896V11H8.4C9.01726 11.0001 9.59989 11.2852 9.97873 11.7725C10.3576 12.2598 10.4902 12.8948 10.338 13.493L9.435 17.041C9.37677 17.269 9.48546 17.5068 9.696 17.612L10.357 17.942L15.067 11.27C15.317 10.916 15.637 10.626 16 10.412V2Z" fill="#000091"/>
</svg>
